X: 20782
T: Johnny Loughran's
R: slide
M: 12/8
K: Adorian
|:E|AAA A2B G2G G2B|A2A ABd e2d efg|
A2A ABA G3 GAB|c2A BAG A3 A2:|
|:f|g2e e2f g2e dcB|g2e e2f g2a b2a|
g2e e2f g2e dcB|c2A BAG A3 A2:|

